svg/design/magic_2_line.svg

<?xml version="1.0" encoding="UTF-8"?>
<svg width="24px" height="24px" viewBox="0 0 24 24" version="1.1" xmlns="http://www.w3.org/2000/svg" xmlns:xlink="http://www.w3.org/1999/xlink">
    <title>magic_2_line</title>
    <g id="页面-1" stroke="none" stroke-width="1" fill="none" fill-rule="evenodd">
        <g id="Editor" transform="translate(-864.000000, 0.000000)">
            <g id="magic_2_line" transform="translate(864.000000, 0.000000)">
                 <path d="M24,0 L24,24 L0,24 L0,0 L24,0 Z M12.5934901,23.257841 L12.5819402,23.2595131 L12.5108777,23.2950439 L12.4918791,23.2987469 L12.4918791,23.2987469 L12.4767152,23.2950439 L12.4056548,23.2595131 C12.3958229,23.2563662 12.3870493,23.2590235 12.3821421,23.2649074 L12.3780323,23.275831 L12.360941,23.7031097 L12.3658947,23.7234994 L12.3769048,23.7357139 L12.4804777,23.8096931 L12.4953491,23.8136134 L12.4953491,23.8136134 L12.5071152,23.8096931 L12.6106902,23.7357139 L12.6232938,23.7196733 L12.6232938,23.7196733 L12.6266527,23.7031097 L12.609561,23.275831 C12.6075724,23.2657013 12.6010112,23.2592993 12.5934901,23.257841 L12.5934901,23.257841 Z M12.8583906,23.1452862 L12.8445485,23.1473072 L12.6598443,23.2396597 L12.6498822,23.2499052 L12.6498822,23.2499052 L12.6471943,23.2611114 L12.6650943,23.6906389 L12.6699349,23.7034178 L12.6699349,23.7034178 L12.678386,23.7104931 L12.8793402,23.8032389 C12.8914285,23.8068999 12.9022333,23.8029875 12.9078286,23.7952264 L12.9118235,23.7811639 L12.8776777,23.1665331 C12.8752882,23.1545897 12.8674102,23.1470016 12.8583906,23.1452862 L12.8583906,23.1452862 Z M12.1430473,23.1473072 C12.1332178,23.1423925 12.1221763,23.1452606 12.1156365,23.1525954 L12.1099173,23.1665331 L12.0757714,23.7811639 C12.0751323,23.7926639 12.0828099,23.8018602 12.0926481,23.8045676 L12.108256,23.8032389 L12.3092106,23.7104931 L12.3186497,23.7024347 L12.3186497,23.7024347 L12.3225043,23.6906389 L12.340401,23.2611114 L12.337245,23.2485176 L12.337245,23.2485176 L12.3277531,23.2396597 L12.1430473,23.1473072 Z" id="MingCute" fill-rule="nonzero"></path>
                <path d="M6.75117,5.34306 C6.36065,4.95254 5.72748,4.95254 5.33696,5.34306 C4.94644,5.73359 4.94644,6.36675 5.33696,6.75728 L7.45828,8.8786 C7.8488,9.26912 8.48197,9.26912 8.87249,8.8786 C9.26302,8.48807 9.26302,7.85491 8.87249,7.46438 L6.75117,5.34306 Z M11.7009,10.2928 C11.3104,9.90229 10.6772,9.90229 10.2867,10.2928 C9.89618,10.6833 9.89618,11.3165 10.2867,11.707 L19.4791,20.8994 C19.8696,21.2899 20.5028,21.2899 20.8933,20.8994 C21.2838,20.5089 21.2838,19.8757 20.8933,19.4852 L11.7009,10.2928 Z M16.6507,5.34306 C17.0412,5.73359 17.0412,6.36675 16.6507,6.75728 L14.5293,8.8786 C14.1388,9.26912 13.5057,9.26912 13.1151,8.8786 C12.7246,8.48807 12.7246,7.85491 13.1151,7.46438 L15.2365,5.34306 C15.627,4.95254 16.2601,4.95254 16.6507,5.34306 Z M8.87249,14.5355 C9.26302,14.1449 9.26302,13.5118 8.87249,13.1212 C8.48197,12.7307 7.8488,12.7307 7.45828,13.1212 L5.33696,15.2426 C4.94644,15.6331 4.94644,16.2662 5.33696,16.6568 C5.72748,17.0473 6.36065,17.0473 6.75117,16.6568 L8.87249,14.5355 Z M18.9938,10.9999 C18.9938,11.5522 18.546,11.9999 17.9938,11.9999 L14.9938,11.9999 C14.4415,11.9999 13.9938,11.5522 13.9938,10.9999 C13.9938,10.4476 14.4415,9.99992 14.9938,9.99992 L17.9938,9.99992 C18.546,9.99992 18.9938,10.4476 18.9938,10.9999 Z M6.9939,11.9999 C7.54618,11.9999 7.9939,11.5522 7.9939,10.9999 C7.9939,10.4476 7.54618,9.99992 6.9939,9.99992 L3.9939,9.99992 C3.44161,9.99992 2.9939,10.4476 2.9939,10.9999 C2.9939,11.5522 3.44161,11.9999 3.9939,11.9999 L6.9939,11.9999 Z M10.99381,18.9999 C10.4415,18.9999 9.99381,18.5521 9.99381,17.9999 L9.99381,14.9999 C9.99381,14.4476 10.4415,13.9999 10.99381,13.9999 C11.5461,13.9999 11.99381,14.4476 11.99381,14.9999 L11.99381,17.9999 C11.99381,18.5521 11.5461,18.9999 10.99381,18.9999 Z M9.99381,7 C9.99381,7.55228 10.4415,8 10.99381,8 C11.5461,8 11.99381,7.55228 11.99381,7 L11.99381,4 C11.99381,3.44772 11.5461,3 10.99381,3 C10.4415,3 9.99381,3.44772 9.99381,4 L9.99381,7 Z" id="形状" fill="#09244B"></path>
            </g>
        </g>
    </g>
</svg>

<svg xmlns="http://www.w3.org/2000/svg" width="24" height="24"><g fill="none" fill-rule="evenodd"><path d="M24 0v24H0V0h24ZM12.593 23.258l-.011.002-.071.035-.02.004-.014-.004-.071-.035c-.01-.004-.019-.001-.024.005l-.004.01-.017.428.005.02.01.013.104.074.015.004.012-.004.104-.074.012-.016.004-.017-.017-.427c-.002-.01-.009-.017-.017-.018Zm.265-.113-.013.002-.185.093-.01.01-.003.011.018.43.005.012.008.007.201.093c.012.004.023 0 .029-.008l.004-.014-.034-.614c-.003-.012-.01-.02-.02-.022Zm-.715.002a.023.023 0 0 0-.027.006l-.006.014-.034.614c0 .012.007.02.017.024l.015-.002.201-.093.01-.008.004-.011.017-.43-.003-.012-.01-.01-.184-.092Z"/><path fill="#09244B" d="M6.751 5.343a1 1 0 0 0-1.414 1.414L7.458 8.88a1 1 0 0 0 1.414-1.415l-2.12-2.12Zm4.95 4.95a1 1 0 0 0-1.414 1.414l9.192 9.192a1 1 0 0 0 1.414-1.414l-9.192-9.192Zm4.95-4.95a1 1 0 0 1 0 1.414L14.529 8.88a1 1 0 1 1-1.414-1.415l2.121-2.12a1 1 0 0 1 1.415 0Zm-7.779 9.193a1 1 0 0 0-1.414-1.415l-2.121 2.122a1 1 0 1 0 1.414 1.414l2.121-2.121ZM18.994 11a1 1 0 0 1-1 1h-3a1 1 0 1 1 0-2h3a1 1 0 0 1 1 1Zm-12 1a1 1 0 1 0 0-2h-3a1 1 0 1 0 0 2h3Zm4 7a1 1 0 0 1-1-1v-3a1 1 0 1 1 2 0v3a1 1 0 0 1-1 1Zm-1-12a1 1 0 1 0 2 0V4a1 1 0 1 0-2 0v3Z"/></g></svg>
